X:119 
T:Maid of Holywell (reel), The 
F:file ID: cre.5/119maid_h
B:CRE5.200 (Gearrchaile an Tobar Bheannaithe)
M:4/4
Q:180
R:reel
K:D
A3A B3B|A2FA BEEB|A2FA (3Bcd Ad|BdAG FDDB|
ADFA BdcB|AdFA BEEF|G3A Bdeg|fdec d2AG||
d2dd edBd|egfe dBAB|d2dd egfe|dBAG FDD2|
d2dd edBd|egfe dBAB|defg a2ag|f2eg fddB||


%%%

